outputs/icons/hardware/phone_android_round.svg

<svg xmlns="http://www.w3.org/2000/svg" width="1200" height="1200" fill="none"><g clip-path="url(#a)"><path fill="#000" d="M800 50H400c-83 0-150 67-150 150v800c0 83 67 150 150 150h400c83 0 150-67 150-150V200c0-83-67-150-150-150M675 1050H525c-14 0-25-11-25-25s11-25 25-25h150c14 0 25 11 25 25s-11 25-25 25m175-150H350V200h500z"/></g><defs><clipPath id="a"><path fill="#fff" d="M0 0h1200v1200H0z"/></clipPath></defs></svg>

<svg width="1200" height="1200" viewBox="0 0 1200 1200" fill="none" xmlns="http://www.w3.org/2000/svg"><g clip-path="url(#clip0_238_1276)"><path d="M800 50H400C317 50 250 117 250 200V1000C250 1083 317 1150 400 1150H800C883 1150 950 1083 950 1000V200C950 117 883 50 800 50ZM675 1050H525C511 1050 500 1039 500 1025C500 1011 511 1000 525 1000H675C689 1000 700 1011 700 1025C700 1039 689 1050 675 1050ZM850 900H350V200H850V900Z" fill="black"/></g><defs><clipPath id="clip0_238_1276"><path width="24" fill="white" d="M0 0H1200V1200H0V0z"/></clipPath></defs></svg>
